X: 34271
T: Reluctant Traveller, The
R: reel
M: 4/4
K: Cmajor
|:DE|~F2DF EDCE|DCFD ~A,2DE|~F2DF EFGE|FAGE ~F2DE|
~F2DF EDCE|DCFD ~A,2A,C|DEDC A,CDE|FEGF D2:|
de|~f2df edce|~f2df efge|~f2df edce|fage ~f2dc|
~d2Ad cdAc|~d2Ad cAFA|cAFA ~c2Ac|dcAc ~d2
de|~f2df edce|~f2df efge|~f2df edce|fage ~f2de|
~f2df edce|~f2df efge|fedc dcAF|GFEF D2|

